src/static/media/jest.svg

<svg height="96" viewBox="0 0 96 96" width="96" xmlns="http://www.w3.org/2000/svg"><path d="m73.1265039 47.5415011c0-3.3923183-2.4441245-6.2228934-5.6636968-6.8275049l7.70121-22.7139962h-36.402749l7.7128822 22.7600477c-3.1075207.6916212-5.4385327 3.4687171-5.4385327 6.7814534 0 2.4878417 1.3146959 4.6730592 3.2851479 5.9009575-.9477694 1.411892-2.0716804 2.7405943-3.3596367 3.9555472-2.0423943 1.9269472-4.3180171 3.3882862-6.771267 4.3496376-2.4708641-1.5521687-3.5154053-4.4790911-2.4305425-7.0291128l.0848875-.1994858c.0530547-.1247846.1063216-.2499938.1593764-.3752029 2.7138547-.9462839 4.6673292-3.529624 4.6673292-6.5622314 0-3.8316114-3.1172827-6.9486819-6.9488941-6.9486819-3.8316115 0-6.948682 3.1170705-6.948682 6.9486819 0 1.9339504.7947596 3.6851804 2.0740149 4.9461848-.2319552.49447-.4757947.9970042-.7264252 1.5118472-1.1697503 2.4025296-2.4954815 5.1257219-2.9969546 8.1496284-.9959431 6.0055813.6103414 10.8063963 4.5230204 13.5181288 2.3743046 1.645545 4.785323 2.2928125 7.2116211 2.2926002 4.5688597-.0002122 9.1903497-2.2953591 13.7106114-4.5406346 3.2556494-1.6168954 6.6218649-3.2889678 9.9471221-4.1089814 1.237236-.3051707 2.5103369-.48874 3.8581388-.6831325 2.6726842-.3856017 5.4366226-.7841487 7.8847793-2.2019828 2.8375783-1.6436351 4.7802297-4.4007824 5.3294521-7.5643289.4715503-2.7157646-.0961352-5.4355615-1.4802265-7.7423804.6453575-1.0543033 1.0180138-2.2928125 1.0180138-3.6170582zm-2.7278611 0c0 2.3274042-1.8934166 4.221033-4.221033 4.221033-2.327192 0-4.2208208-1.8936288-4.2208208-4.221033 0-2.3274041 1.8936288-4.2208207 4.2208208-4.2208207 2.3276164 0 4.221033 1.8934166 4.221033 4.2208207zm.9600781-26.81364-6.8005532 20.0574406c-.294772.0706689-.5821163.1598008-.8611841.2669713l-6.7180001-13.7046691-6.7375241 13.6236015c-.2911643-.1003795-.5908173-.1829326-.8981102-.2440517l-6.7772091-19.9992926zm-23.3744213 22.5928193c2.3274042 0 4.2208208 1.8934166 4.2208208 4.2208207 0 2.3274042-1.8934166 4.221033-4.2208208 4.221033-2.3271919 0-4.2208208-1.8936288-4.2208208-4.221033 0-2.3274041 1.8936289-4.2208207 4.2208208-4.2208207zm-18.2622813.0401093c2.3276163 0 4.221033 1.8934166 4.221033 4.2208208s-1.8934167 4.221033-4.221033 4.221033c-2.327192 0-4.2208208-1.8936288-4.2208208-4.221033s1.8936288-4.2208208 4.2208208-4.2208208zm41.1789465 15.0734808c-.4106435 2.3658158-1.8719825 4.4326152-4.0090264 5.6702755-1.9920984 1.153834-4.3793482 1.4982652-6.9068748 1.8626449-1.3539563.1952414-2.7541763.3972737-4.1219268.7347017-3.6166337.8917436-7.1197303 2.631726-10.5073799 4.3144093-6.7793314 3.3672766-12.6342374 6.2750993-18.1546864 2.4490056-4.0438303-2.8025622-3.8570777-7.9881299-3.3859518-10.8297404.4365342-2.6325749 1.6168954-5.0571753 2.7584206-7.4019814.1975758-.4057624.3894216-.8032483.5776598-1.1981876.5661999.2264375 1.1682647.3807206 1.7957959.4507528-1.1618982 3.8350069.6655183 8.004683 4.5009497 9.975135l.5248172.2697302.5560134-.1980002c3.032183-1.0797695 5.8260442-2.8127487 8.3043361-5.1507638 1.6020401-1.5112105 2.9787038-3.1832828 4.1106792-4.9699533.3395501.0511447.6869524.0780965 1.040509.0780965 3.8316114 0 6.9488942-3.1170705 6.9488942-6.9488942 0-2.060645-.9025668-3.9137401-2.332073-5.1874776l4.3670396-8.830851 4.4113933 8.9991405c-1.323609 1.2660977-2.1506259 3.0472505-2.1506259 5.0191881 0 3.8318237 3.1170706 6.9488942 6.948682 6.9488942 1.4721622 0 2.8377905-.4613638 3.9625504-1.2453002.7809654 1.5986446 1.0719174 3.3974116.7608046 5.1891754z" fill="#fff"/></svg>

<?xml version="1.0" encoding="UTF-8"?>
<svg width="96px" height="96px" viewBox="0 0 96 96" version="1.1" xmlns="http://www.w3.org/2000/svg" xmlns:xlink="http://www.w3.org/1999/xlink">
    <!-- Generator: Sketch 52.4 (67378) - http://www.bohemiancoding.com/sketch -->
    <title>jest</title>
    <desc>Created with Sketch.</desc>
    <g id="jest" stroke="none" stroke-width="1" fill="none" fill-rule="evenodd">
        <path d="M73.1265039,47.5415011 C73.1265039,44.1491828 70.6823794,41.3186077 67.4628071,40.7139962 L75.1640171,18 L38.7612681,18 L46.4741503,40.7600477 C43.3666296,41.4516689 41.0356176,44.2287648 41.0356176,47.5415011 C41.0356176,50.0293428 42.3503135,52.2145603 44.3207655,53.4424586 C43.3729961,54.8543506 42.2490851,56.1830529 40.9611288,57.3980058 C38.9187345,59.324953 36.6431117,60.786292 34.1898618,61.7476434 C31.7189977,60.1954747 30.6744565,57.2685523 31.7593193,54.7185306 L31.8442068,54.5190448 C31.8972615,54.3942602 31.9505284,54.269051 32.0035832,54.1438419 C34.7174379,53.197558 36.6709124,50.6142179 36.6709124,47.5816105 C36.6709124,43.7499991 33.5536297,40.6329286 29.7220183,40.6329286 C25.8904068,40.6329286 22.7733363,43.7499991 22.7733363,47.5816105 C22.7733363,49.5155609 23.5680959,51.2667909 24.8473512,52.5277953 C24.615396,53.0222653 24.3715565,53.5247995 24.120926,54.0396425 C22.9511757,56.4421721 21.6254445,59.1653644 21.1239714,62.1892709 C20.1280283,68.1948522 21.7343128,72.9956672 25.6469918,75.7073997 C28.0212964,77.3529447 30.4323148,78.0002122 32.8586129,77.9999999 C37.4274726,77.9997877 42.0489626,75.7046408 46.5692243,73.4593653 C49.8248737,71.8424699 53.1910892,70.1703975 56.5163464,69.3503839 C57.7535824,69.0452132 59.0266833,68.8616439 60.3744852,68.6672514 C63.0471694,68.2816497 65.8111078,67.8831027 68.2592645,66.4652686 C71.0968428,64.8216335 73.0394942,62.0644862 73.5887166,58.9009397 C74.0602669,56.1851751 73.4925814,53.4653782 72.1084901,51.1585593 C72.7538476,50.104256 73.1265039,48.8657468 73.1265039,47.5415011 Z M70.3986428,47.5415011 C70.3986428,49.8689053 68.5052262,51.7625341 66.1776098,51.7625341 C63.8504178,51.7625341 61.956789,49.8689053 61.956789,47.5415011 C61.956789,45.214097 63.8504178,43.3206804 66.1776098,43.3206804 C68.5052262,43.3206804 70.3986428,45.214097 70.3986428,47.5415011 Z M71.3587209,20.7278611 L64.5581677,40.7853017 C64.2633957,40.8559706 63.9760514,40.9451025 63.6969836,41.052273 L56.9789835,27.3476039 L50.2414594,40.9712054 C49.9502951,40.8708259 49.6506421,40.7882728 49.3433492,40.7271537 L42.5661401,20.7278611 L71.3587209,20.7278611 Z M47.9842996,43.3206804 C50.3117038,43.3206804 52.2051204,45.214097 52.2051204,47.5415011 C52.2051204,49.8689053 50.3117038,51.7625341 47.9842996,51.7625341 C45.6571077,51.7625341 43.7634788,49.8689053 43.7634788,47.5415011 C43.7634788,45.214097 45.6571077,43.3206804 47.9842996,43.3206804 Z M29.7220183,43.3607897 C32.0496346,43.3607897 33.9430513,45.2542063 33.9430513,47.5816105 C33.9430513,49.9090147 32.0496346,51.8026435 29.7220183,51.8026435 C27.3948263,51.8026435 25.5011975,49.9090147 25.5011975,47.5816105 C25.5011975,45.2542063 27.3948263,43.3607897 29.7220183,43.3607897 Z M70.9009648,58.4342705 C70.4903213,60.8000863 69.0289823,62.8668857 66.8919384,64.104546 C64.89984,65.25838 62.5125902,65.6028112 59.9850636,65.9671909 C58.6311073,66.1624323 57.2308873,66.3644646 55.8631368,66.7018926 C52.2465031,67.5936362 48.7434065,69.3336186 45.3557569,71.0163019 C38.5764255,74.3835785 32.7215195,77.2914012 27.2010705,73.4653075 C23.1572402,70.6627453 23.3439928,65.4771776 23.8151187,62.6355671 C24.2516529,60.0029922 25.4320141,57.5783918 26.5735393,55.2335857 C26.7711151,54.8278233 26.9629609,54.4303374 27.1511991,54.0353981 C27.717399,54.2618356 28.3194638,54.4161187 28.946995,54.4861509 C27.7850968,58.3211578 29.6125133,62.4908339 33.4479447,64.4612859 L33.9727619,64.7310161 L34.5287753,64.5330159 C37.5609583,63.4532464 40.3548195,61.7202672 42.8331114,59.3822521 C44.4351515,57.8710416 45.8118152,56.1989693 46.9437906,54.4122988 C47.2833407,54.4634435 47.630743,54.4903953 47.9842996,54.4903953 C51.815911,54.4903953 54.9331938,51.3733248 54.9331938,47.5415011 C54.9331938,45.4808561 54.030627,43.627761 52.6011208,42.3540235 L56.9681604,33.5231725 L61.3795537,42.522313 C60.0559447,43.7884107 59.2289278,45.5695635 59.2289278,47.5415011 C59.2289278,51.3733248 62.3459984,54.4903953 66.1776098,54.4903953 C67.649772,54.4903953 69.0154003,54.0290315 70.1401602,53.2450951 C70.9211256,54.8437397 71.2120776,56.6425067 70.9009648,58.4342705 Z" id="Shape" fill="#FFFFFF" fill-rule="nonzero"></path>
    </g>
</svg>
